images/icon-mail.svg

<?xml version="1.0" encoding="UTF-8" standalone="no"?>
<svg width="50px" height="50px" viewBox="0 0 50 50" version="1.1" xmlns="http://www.w3.org/2000/svg" xmlns:xlink="http://www.w3.org/1999/xlink" xmlns:sketch="http://www.bohemiancoding.com/sketch/ns">
    <title>Mail</title>
    <description>Created with Sketch (http://www.bohemiancoding.com/sketch)</description>
    <defs></defs>
    <g id="Page-1" stroke="none" stroke-width="1" fill="none" fill-rule="evenodd" sketch:type="MSPage">
        <g id="Mail" sketch:type="MSArtboardGroup" fill="#000000">
            <path d="M25,0 C11.1928806,0 0,11.1928806 0,25 C0,38.8071194 11.1928806,50 25,50 C38.8071194,50 50,38.8071194 50,25 C50,11.1928806 38.8071194,0 25,0 Z M25,3 C12.8497349,3 3,12.8497349 3,25 C3,37.1502651 12.8497349,47 25,47 C37.1502651,47 47,37.1502651 47,25 C47,12.8497349 37.1502651,3 25,3 Z M37,31.9646738 L37,17 L28.262875,25.4642914 L37,31.9646738 Z M13,31.9646738 L21.7369375,25.4633812 L13,17 L13,31.9646738 Z M22.9140156,26.604743 L13,33 L37,33 L27.08575,26.604743 L25,28.625083 L22.9140156,26.604743 Z M13.72,17 L25,26.0581312 L36.28,17 L13.72,17 Z M13.72,17" id="Oval-1" sketch:type="MSShapeGroup"></path>
        </g>
    </g>
</svg>

<svg width="50" height="50" xmlns="http://www.w3.org/2000/svg" xmlns:sketch="http://www.bohemiancoding.com/sketch/ns"><title>Mail</title><path d="M25 0c-13.807 0-25 11.193-25 25s11.193 25 25 25 25-11.193 25-25-11.193-25-25-25zm0 3c-12.15 0-22 9.85-22 22s9.85 22 22 22 22-9.85 22-22-9.85-22-22-22zm12 28.965v-14.965l-8.737 8.464 8.737 6.5zm-24 0l8.737-6.501-8.737-8.463v14.965zm9.914-5.36l-9.914 6.395h24l-9.914-6.395-2.086 2.02-2.086-2.02zm-9.194-9.605l11.28 9.058 11.28-9.058h-22.56zm0 0" sketch:type="MSShapeGroup" fill="none"/></svg>
